X: 5
T: Out On The Ocean
R: jig
M: 6/8
L: 1/8
K: Gmaj
B3 BAG|BdB A2B|GED G2A|BAB GED|BAB BAG|BdB A2B|GED G2A|BGG G3:|ege edB|ege edB|ded dBA|ded dBA|G2A B2d|ege dBA|GED G2A|BGG G3|ege edB|ege dBA|ded def|gfe dBA|G2A B2d|ege dBA|GED G2A|BGG G3||


Tune 108	Setting 25911

